X: 29546
T: Nobody's Trip To Prague
R: three-two
M: 3/2
K: Ddorian
|:D3 F2 EFE C2 A,C|D (3EFG A2 GFD (3CDC A,C|DA,D F2 EFE (3CDC A,C|1 z FEF z A^GA cc A2:|2 [M:4/4] z FEF z A^GA||
|:fedc A2 DE|FA cd B2 de|fedc A2 cc|z Bcd B2 de|
fedc A2 DE|FA cd B3 d/e/|fede cdAc|1 GAFG EF D2:|2 [M:3/2] GAFG EFDE C2 A,C||

